!!!OTL: 1902. Kinderreigen mit Pantomimen.
!!!ODT: 1891
!!!ARE: Europa, Mitteleuropa, Deutschland, Schleswig
!!!SCT: E1902
!!!TXL: @@DE
!!!YEM: Copyright 1995, estate of Helmut Schaffrath.
**kern	**text
*ICvox	*
*M3/4	*
*k[]	*
*C:	*
!LO:TX:a:t=Munter.	!
!LO:TX:a:t=Aus Schleswig 1891 durch Carſtenſen.	!
{8g	Tritt
8g	in'
=1	=1
2cc	Kreis,
8cc	mei-
8dd	-ne
=2	=2
4cc	Ro-
4b}	-ſa,
{8g	tritt
8g	in'
=3	=3
2dd	Kreis,
8dd	mei-
8ee	-ne
=4	=4
4dd	Flo-
4cc}	-ra!
{8g	Tritt
8g	in
=5	=5
4.ee	Kreis
8dd	mein
8cc	al-
8b	-ler-
=6	=6
4a	-letʒ-
4a}	-ter,
{8cc	al-
8a	-ler-
=7	=7
4g	-letʒ-
4cc	-ter
4dd	Ge-
=8	=8
4cc	-troſt.
4r}	.
==	==
!!!AGN: Kinder - Lied, Tanz, Spiel, Pantomime
!!!ONB: ESAC (Essen Associative Code) Database: ERK3
!!!AMT: simple triple
!!!AIN: vox
!!!EED: Helmut Schaffrath
!!!EEV: 1.0
!!!GTL: Einige Kinderlieder. d) Spiel- und Tanzliedchen.
!!!URL-scan: https://rosdok.uni-rostock.de/mcrviewer/recordIdentifier/rosdok_ppn745177999/iview2/phys_0619.iview2?x=188.9681574111819&y=1373.007055056747&scale=0.7014306698522895&rotation=0&layout=singlePageLayout
!!!ENC: Anna Maria Matuszewska
!!!EEV: 2025/09/01
*-	*-
